svgs/1F63C.svg

<svg xmlns="http://www.w3.org/2000/svg" xmlns:xlink="http://www.w3.org/1999/xlink" preserveAspectRatio="none" viewBox="0 0 72 72"><defs><path id="a" fill="#FCC21B" d="M66.85 48q.563-3.917-.05-8.15-.85-5.1-3.85-9.65.75-7.8.55-13.6-.45-9.5-3.55-11.65-2.5-1.65-8.3 3.05-3.95 3.05-7.6 7.35l-1.85 2.2q-3.3-.5-6.2-.5-2.9 0-6.2.5l-1.85-2.2q-3.65-4.3-7.6-7.35-5.8-4.7-8.3-3.05Q8.95 7.1 8.5 16.6q-.2 5.8.55 13.6-3 4.55-3.85 9.65-.6 4.25-.1 8.2.1.45.15.95.45 2.35 1.3 4.6l.2.5q.5 1 1.05 1.95.05 0 .05.05v.05q1.75 2.65 4.45 4.7 5.15 3.8 12.55 5.45Q31 67.55 35.8 67.55h.4q4.8 0 10.95-1.25 7.4-1.65 12.55-5.45 2.676-2.053 4.4-4.75h.05q.01-.026 0-.05.614-.94 1.1-1.95l.2-.5q.845-2.256 1.25-4.65.108-.452.15-.95z"/><path id="b" fill="#FCD995" d="M-24.95 46.55q2.7-2.05 4.45-4.7v-.05q0-.05.05-.05.55-.95 1.05-1.95l.2-.5q.85-2.25 1.3-4.6.05-.5.15-.95-15.25-5.2-30.9-5.3-15.65.1-30.9 5.3.1.45.15.95.45 2.35 1.3 4.6l.2.5q.5 1 1.05 1.95.05 0 .05.05v.05q1.75 2.65 4.45 4.7 5.15 3.8 12.55 5.45 6.15 1.25 10.95 1.25h.4q4.8 0 10.95-1.25 7.4-1.65 12.55-5.45z"/><path id="c" fill="#FCD995" d="M13.35 7.35q-3.4 1.4-.85 19.35 5.7-4.75 13.1-8.25Q16.85 6.1 13.35 7.35m46.1 19.3Q62.045 8.757 58.6 7.3q-3.469-1.22-12.25 11.15 7.46 3.488 13.1 8.2z"/><path id="e" fill="#2F2F2F" d="M31 42.4q3.1.6 5.05 2.55 1.9-1.95 5-2.55-1-2.85-4.95-2.85-4.15 0-5.1 2.85z"/><path id="h" fill="#2F2F2F" d="M18.6 31.85q-1.35 1.5-1.35 3.6t1.35 3.6q1.3 1.45 3.15 1.45 1.9 0 3.2-1.45 1.3-1.5 1.3-3.6t-1.3-3.6q-1.3-1.45-3.2-1.45-1.85 0-3.15 1.45m28.45 7.2q1.35 1.45 3.2 1.45t3.2-1.45q1.3-1.5 1.3-3.6t-1.3-3.6q-1.35-1.5-3.2-1.5t-3.2 1.5q-1.35 1.5-1.35 3.6t1.35 3.6z"/><path id="k" fill="#2F2F2F" d="M46.65 47.85q-.6 0-1.05.45-3.25 3.1-7.75 4.3-4.5 1.2-9 0-.55-.2-1.1.2-.55.25-.75.9-.15.6.2 1.15.3.55.95.7 2.6.65 5.2.65 4 0 7.7-1.45 3.8-1.5 6.65-4.3.45-.45.45-1.05 0-.65-.4-1.05-.45-.45-1.1-.5z"/><path id="d" fill="none" stroke="#2F2F2F" stroke-linecap="round" stroke-linejoin="round" stroke-width="2" d="M58.15 43.1q5.85-1.05 11.75-.6M60.15 47q4.7.25 8.7 1.4m-12.4-8.85q6.5-2.85 14.4-3.3M14 43.1Q8.1 42 2.25 42.5m9.7 4.5q-4.7.3-8.75 1.4m12.4-8.85q-6.5-2.85-14.4-3.3"/><path id="f" fill="none" stroke="#2F2F2F" stroke-linecap="round" stroke-linejoin="round" stroke-width="1" d="M31 42.4q3.1.6 5.05 2.55 1.9-1.95 5-2.55-1-2.85-4.95-2.85-4.15 0-5.1 2.85z"/><path id="g" fill="none" stroke="#2F2F2F" stroke-linecap="round" stroke-linejoin="round" stroke-width="2" d="M36.05 44.95v8.55"/><path id="i" fill="none" stroke="#2F2F2F" stroke-linecap="round" stroke-linejoin="round" stroke-width="2" d="M45.44 30.625q3.07-3.892 8.704-4.48"/><path id="j" fill="none" stroke="#2F2F2F" stroke-linecap="round" stroke-linejoin="round" stroke-width="2" d="M26.666 30.586q-3.12-3.901-8.705-4.48"/></defs><use xlink:href="#a"/><use transform="translate(84.65 14.3)" xlink:href="#b"/><use xlink:href="#c"/><use xlink:href="#d"/><g><use xlink:href="#e"/><use xlink:href="#f"/><use xlink:href="#g"/></g><use xlink:href="#h"/><use transform="matrix(1 0 0 1 -.009 .052)" xlink:href="#i"/><use transform="matrix(1 .00001 -.00001 1 .022 -.005)" xlink:href="#j"/><use xlink:href="#k"/></svg>

<svg xmlns="http://www.w3.org/2000/svg" version="1.1" xmlns:xlink="http://www.w3.org/1999/xlink" preserveAspectRatio="none" x="0px" y="0px" width="72px" height="72px" viewBox="0 0 72 72">
<defs>
<g id="Layer0_0_FILL">
<path fill="#FCC21B" stroke="none" d="
M 66.85 48
Q 67.4126953125 44.083203125 66.8 39.85 65.95 34.75 62.95 30.2 63.7 22.4 63.5 16.6 63.05 7.1 59.95 4.95 57.45 3.3 51.65 8 47.7 11.05 44.05 15.35
L 42.2 17.55
Q 38.9 17.05 36 17.05 33.1 17.05 29.8 17.55
L 27.95 15.35
Q 24.3 11.05 20.35 8 14.55 3.3 12.05 4.95 8.95 7.1 8.5 16.6 8.3 22.4 9.05 30.2 6.05 34.75 5.2 39.85 4.6 44.1 5.1 48.05 5.2 48.5 5.25 49 5.7 51.35 6.55 53.6 6.65 53.85 6.75 54.1 7.25 55.1 7.8 56.05 7.85 56.05 7.85 56.1
L 7.85 56.15
Q 9.6 58.8 12.3 60.85 17.45 64.65 24.85 66.3 31 67.55 35.8 67.55 35.9 67.55 36 67.55 36.1 67.55 36.2 67.55 41 67.55 47.15 66.3 54.55 64.65 59.7 60.85 62.376171875 58.7970703125 64.1 56.1
L 64.15 56.1
Q 64.159375 56.0740234375 64.15 56.05 64.7638671875 55.110546875 65.25 54.1 65.34921875 53.85078125 65.45 53.6 66.29453125 51.344140625 66.7 48.95 66.8080078125 48.4984375 66.85 48 Z"/>
</g>

<g id="Layer0_0_MEMBER_0_FILL">
<path fill="#FCD995" stroke="none" d="
M -24.95 46.55
Q -22.25 44.5 -20.5 41.85
L -20.5 41.8
Q -20.5 41.75 -20.45 41.75 -19.9 40.8 -19.4 39.8 -19.3 39.55 -19.2 39.3 -18.35 37.05 -17.9 34.7 -17.85 34.2 -17.75 33.75 -33 28.55 -48.65 28.45 -64.3 28.55 -79.55 33.75 -79.45 34.2 -79.4 34.7 -78.95 37.05 -78.1 39.3 -78 39.55 -77.9 39.8 -77.4 40.8 -76.85 41.75 -76.8 41.75 -76.8 41.8
L -76.8 41.85
Q -75.05 44.5 -72.35 46.55 -67.2 50.35 -59.8 52 -53.65 53.25 -48.85 53.25 -48.75 53.25 -48.65 53.25 -48.55 53.25 -48.45 53.25 -43.65 53.25 -37.5 52 -30.1 50.35 -24.95 46.55 Z"/>
</g>

<g id="Layer0_0_MEMBER_1_FILL">
<path fill="#FCD995" stroke="none" d="
M 13.35 7.35
Q 9.95 8.75 12.5 26.7 18.2 21.95 25.6 18.45 16.85 6.1 13.35 7.35
M 59.45 26.65
Q 62.0451171875 8.75703125 58.6 7.3 55.1310546875 6.0791015625 46.35 18.45 53.8107421875 21.937890625 59.45 26.65 Z"/>
</g>

<g id="Layer0_2_FILL">
<path fill="#2F2F2F" stroke="none" d="
M 31 42.4
Q 34.1 43 36.05 44.95 37.95 43 41.05 42.4 40.05 39.55 36.1 39.55 31.95 39.55 31 42.4 Z"/>
</g>

<g id="Layer0_3_FILL">
<path fill="#2F2F2F" stroke="none" d="
M 18.6 31.85
Q 17.25 33.35 17.25 35.45 17.25 37.55 18.6 39.05 19.9 40.5 21.75 40.5 23.65 40.5 24.95 39.05 26.25 37.55 26.25 35.45 26.25 33.35 24.95 31.85 23.65 30.4 21.75 30.4 19.9 30.4 18.6 31.85
M 47.05 39.05
Q 48.4 40.5 50.25 40.5 52.1 40.5 53.45 39.05 54.75 37.55 54.75 35.45 54.75 33.35 53.45 31.85 52.1 30.35 50.25 30.35 48.4 30.35 47.05 31.85 45.7 33.35 45.7 35.45 45.7 37.55 47.05 39.05 Z"/>
</g>

<g id="Layer0_5_FILL">
<path fill="#2F2F2F" stroke="none" d="
M 46.65 47.85
Q 46.05 47.85 45.6 48.3 42.35 51.4 37.85 52.6 33.35 53.8 28.85 52.6 28.3 52.4 27.75 52.8 27.2 53.05 27 53.7 26.85 54.3 27.2 54.85 27.5 55.4 28.15 55.55 30.75 56.2 33.35 56.2 37.35 56.2 41.05 54.75 44.85 53.25 47.7 50.45 48.15 50 48.15 49.4 48.15 48.75 47.75 48.35 47.3 47.9 46.65 47.85 Z"/>
</g>

<path id="Layer0_1_1_STROKES" stroke="#2F2F2F" stroke-width="2" stroke-linejoin="round" stroke-linecap="round" fill="none" d="
M 58.15 43.1
Q 64 42.05 69.9 42.5
M 60.15 47
Q 64.85 47.25 68.85 48.4
M 56.45 39.55
Q 62.95 36.7 70.85 36.25
M 14 43.1
Q 8.1 42 2.25 42.5
M 11.95 47
Q 7.25 47.3 3.2 48.4
M 15.6 39.55
Q 9.1 36.7 1.2 36.25"/>

<path id="Layer0_2_1_STROKES" stroke="#2F2F2F" stroke-width="1" stroke-linejoin="round" stroke-linecap="round" fill="none" d="
M 31 42.4
Q 34.1 43 36.05 44.95 37.95 43 41.05 42.4 40.05 39.55 36.1 39.55 31.95 39.55 31 42.4 Z"/>

<path id="Layer0_2_2_STROKES" stroke="#2F2F2F" stroke-width="2" stroke-linejoin="round" stroke-linecap="round" fill="none" d="
M 36.05 44.95
L 36.05 53.5"/>

<path id="Layer0_4_MEMBER_0_1_STROKES" stroke="#2F2F2F" stroke-width="2" stroke-linejoin="round" stroke-linecap="round" fill="none" d="
M 45.439508056640626 30.6250862121582
Q 48.51029815673828 26.732808685302736 54.143882751464844 26.145721435546875"/>

<path id="Layer0_4_MEMBER_1_1_STROKES" stroke="#2F2F2F" stroke-width="2" stroke-linejoin="round" stroke-linecap="round" fill="none" d="
M 26.66590576171875 30.585565185546873
Q 23.545818328857422 26.68455581665039 17.961388397216794 26.106156158447266"/>
</defs>

<g id="MergedLayer_1">
<g transform="matrix( 1, 0, 0, 1, 0,0) ">
<use xlink:href="#Layer0_0_FILL"/>
</g>

<g transform="matrix( 1, 0, 0, 1, 84.65,14.3) ">
<use xlink:href="#Layer0_0_MEMBER_0_FILL"/>
</g>

<g transform="matrix( 1, 0, 0, 1, 0,0) ">
<use xlink:href="#Layer0_0_MEMBER_1_FILL"/>
</g>

<g transform="matrix( 1, 0, 0, 1, 0,0) ">
<use xlink:href="#Layer0_1_1_STROKES"/>
</g>

<g transform="matrix( 1, 0, 0, 1, 0,0) ">
<use xlink:href="#Layer0_2_FILL"/>

<use xlink:href="#Layer0_2_1_STROKES"/>

<use xlink:href="#Layer0_2_2_STROKES"/>
</g>

<g transform="matrix( 1, 0, 0, 1, 0,0) ">
<use xlink:href="#Layer0_3_FILL"/>
</g>

<g transform="matrix( 0.98480224609375, -0.1736297607421875, 0.1736297607421875, 0.98480224609375, -4.1,9.1) ">
<use xlink:href="#Layer0_4_MEMBER_0_1_STROKES" transform="matrix( 0.9848175048828125, 0.1736297607421875, -0.1736297607421875, 0.9848175048828125, 5.6,-8.2) "/>
</g>

<g transform="matrix( 0.9848175048828125, 0.1736297607421875, -0.1736297607421875, 0.9848175048828125, 5.25,-3.45) ">
<use xlink:href="#Layer0_4_MEMBER_1_1_STROKES" transform="matrix( 0.98480224609375, -0.173614501953125, 0.173614501953125, 0.98480224609375, -4.55,4.3) "/>
</g>

<g transform="matrix( 1, 0, 0, 1, 0,0) ">
<use xlink:href="#Layer0_5_FILL"/>
</g>
</g>
</svg>
